X:38
T:Ryan's Favorite
S:Bernie Waugh
R:Jig
M:6/8
L:1/8
K:A Dor
|:z|\
"Am"EAA EAA|"G"~BAB G2A|"C"Bee edB|"G"dBA GED|
"Am"EAA EAA|"G"~BAB G2A|"Em"Bee edB|"Am"dBA A2:|
|:d|\
"F"eaa age|"G"dBA G2A|"F"Bee "Em"edB|"D"def gfg|
"F"eaa age|"G"dBA G2A|"Em"Bee edB|"Am"dBA A2:|

